X: 0115
T: the Fife Hunt - 8x32R
P: the Aberdeen Town Council
C: Nan Main
B: Miss Milligan's Miscellany v.1 #0155
B: Originally Ours v.1 p.172 #MMM-01115
Z: 2020 John Chambers <jc:trillian.mit.edu>
M: 4/4
L: 1/8
R: reel
K: A
%
E2 |\
"A"A3B "E/A"c3B |"A"A2ab "C#/A"c'bac' | "Bm"b2bc' "F#/Bm"d'c'ba | "E"gagf "G#/E7"edcB |\
"A"A3B "E/A"c3B |"A"A2ab "C#/A"c'bac' | "Bm"bd'bf "E7"gbge | "A"a2z2 a2 ||
d'2 |\
"A"c'd' "E7"e'3d' | "A"a2c'd' "C#/A"e'c'ae | "E"g3a "B/E"b3g | "E"e2bc' "G#/E7"d'bge |\
"D"f3g "F#/D"a3f | "A"e2fg "C#/A"abc'e' | "B7"bc'bf bc'bf | "E"g2b2 "G#/E7"b2e2 |
"A"A2Bc "E7"e2fg | "A/D"a2fa "C#/A"eaec | "D"defe "Bm"dcBA | "E"G2E2 E2G2 |\
"D"F3G "F#/D"A3F | "A"E2FG "C#/A"ABce | "Bm"BcBF "G#/E7"GBGE | "A"A2z2 [a4e4c4A4] |]
